attached_assets/Scandinavian Light & Dreamy #1.xmp
<x:xmpmeta xmlns:x="adobe:ns:meta/" x:xmptk="Adobe XMP Core 7.0-c000 1.000000, 0000/00/00-00:00:00        ">
 <rdf:RDF xmlns:rdf="http://www.w3.org/1999/02/22-rdf-syntax-ns#">
  <rdf:Description rdf:about=""
    xmlns:crs="http://ns.adobe.com/camera-raw-settings/1.0/"
   crs:PresetType="Normal"
   crs:Cluster=""
   crs:UUID="BDA82B8BC77245E9A350D43D92501F54"
   crs:SupportsAmount2="True"
   crs:SupportsAmount="True"
   crs:SupportsColor="True"
   crs:SupportsMonochrome="True"
   crs:SupportsHighDynamicRange="True"
   crs:SupportsNormalDynamicRange="True"
   crs:SupportsSceneReferred="True"
   crs:SupportsOutputReferred="True"
   crs:RequiresRGBTables="False"
   crs:CameraModelRestriction=""
   crs:Copyright=""
   crs:ContactInfo=""
   crs:Version="17.3"
   crs:ProcessVersion="15.4"
   crs:WhiteBalance="Custom"
   crs:IncrementalTemperature="-7"
   crs:IncrementalTint="-1"
   crs:Exposure2012="+0.37"
   crs:Contrast2012="-14"
   crs:Highlights2012="-25"
   crs:Shadows2012="+27"
   crs:Whites2012="-14"
   crs:Blacks2012="-20"
   crs:Texture="+15"
   crs:Clarity2012="+14"
   crs:Dehaze="+14"
   crs:Vibrance="+8"
   crs:Saturation="+8"
   crs:ParametricShadows="-19"
   crs:ParametricDarks="-10"
   crs:ParametricLights="-12"
   crs:ParametricHighlights="+15"
   crs:ParametricShadowSplit="25"
   crs:ParametricMidtoneSplit="40"
   crs:ParametricHighlightSplit="75"
   crs:Sharpness="17"
   crs:SharpenRadius="+1.0"
   crs:SharpenDetail="25"
   crs:SharpenEdgeMasking="4"
   crs:LuminanceSmoothing="29"
   crs:LuminanceNoiseReductionDetail="50"
   crs:LuminanceNoiseReductionContrast="30"
   crs:HueAdjustmentRed="+8"
   crs:HueAdjustmentOrange="-13"
   crs:HueAdjustmentYellow="-27"
   crs:HueAdjustmentGreen="+6"
   crs:HueAdjustmentAqua="-11"
   crs:HueAdjustmentBlue="-23"
   crs:HueAdjustmentPurple="0"
   crs:HueAdjustmentMagenta="0"
   crs:SaturationAdjustmentRed="-15"
   crs:SaturationAdjustmentOrange="-15"
   crs:SaturationAdjustmentYellow="-28"
   crs:SaturationAdjustmentGreen="-31"
   crs:SaturationAdjustmentAqua="-10"
   crs:SaturationAdjustmentBlue="-39"
   crs:SaturationAdjustmentPurple="0"
   crs:SaturationAdjustmentMagenta="0"
   crs:LuminanceAdjustmentRed="0"
   crs:LuminanceAdjustmentOrange="-14"
   crs:LuminanceAdjustmentYellow="+27"
   crs:LuminanceAdjustmentGreen="+1"
   crs:LuminanceAdjustmentAqua="0"
   crs:LuminanceAdjustmentBlue="+10"
   crs:LuminanceAdjustmentPurple="0"
   crs:LuminanceAdjustmentMagenta="0"
   crs:GrainAmount="5"
   crs:GrainSize="46"
   crs:GrainFrequency="50"
   crs:PostCropVignetteAmount="+5"
   crs:PostCropVignetteMidpoint="50"
   crs:PostCropVignetteFeather="50"
   crs:PostCropVignetteRoundness="+18"
   crs:PostCropVignetteStyle="1"
   crs:ShadowTint="0"
   crs:RedHue="0"
   crs:RedSaturation="0"
   crs:GreenHue="0"
   crs:GreenSaturation="0"
   crs:BlueHue="0"
   crs:BlueSaturation="0"
   crs:OverrideLookVignette="True"
   crs:ToneCurveName2012="Linear"
   crs:HasSettings="True">
   <crs:Name>
    <rdf:Alt>
     <rdf:li xml:lang="x-default">Scandinavian Light &amp; Dreamy #1</rdf:li>
    </rdf:Alt>
   </crs:Name>
   <crs:ShortName>
    <rdf:Alt>
     <rdf:li xml:lang="x-default"/>
    </rdf:Alt>
   </crs:ShortName>
   <crs:SortName>
    <rdf:Alt>
     <rdf:li xml:lang="x-default"/>
    </rdf:Alt>
   </crs:SortName>
   <crs:Group>
    <rdf:Alt>
     <rdf:li xml:lang="x-default">Scandinavian Light &amp; Dreamy</rdf:li>
    </rdf:Alt>
   </crs:Group>
   <crs:Description>
    <rdf:Alt>
     <rdf:li xml:lang="x-default"/>
    </rdf:Alt>
   </crs:Description>
   <crs:ToneCurvePV2012>
    <rdf:Seq>
     <rdf:li>0, 0</rdf:li>
     <rdf:li>255, 255</rdf:li>
    </rdf:Seq>
   </crs:ToneCurvePV2012>
   <crs:ToneCurvePV2012Red>
    <rdf:Seq>
     <rdf:li>0, 0</rdf:li>
     <rdf:li>255, 255</rdf:li>
    </rdf:Seq>
   </crs:ToneCurvePV2012Red>
   <crs:ToneCurvePV2012Green>
    <rdf:Seq>
     <rdf:li>0, 0</rdf:li>
     <rdf:li>255, 255</rdf:li>
    </rdf:Seq>
   </crs:ToneCurvePV2012Green>
   <crs:ToneCurvePV2012Blue>
    <rdf:Seq>
     <rdf:li>0, 0</rdf:li>
     <rdf:li>255, 255</rdf:li>
    </rdf:Seq>
   </crs:ToneCurvePV2012Blue>
   <crs:LensBlur
    crs:Version="1"
    crs:Active="false"
    crs:ImageOrientation="0"
    crs:FocalRange="0 0 100 100"
    crs:BlurAmount="50"
    crs:BokehShape="0"
    crs:BokehShapeDetail="0"
    crs:HighlightsThreshold="50"
    crs:HighlightsBoost="50"
    crs:CatEyeAmount="0"
    crs:CatEyeScale="100"
    crs:BokehAspect="0"
    crs:BokehRotation="0"
    crs:SphericalAberration="0"/>
  </rdf:Description>
 </rdf:RDF>
</x:xmpmeta>
